svg/building/palace_line.svg

<?xml version="1.0" encoding="UTF-8"?>
<svg width="24px" height="24px" viewBox="0 0 24 24" version="1.1" xmlns="http://www.w3.org/2000/svg" xmlns:xlink="http://www.w3.org/1999/xlink">
    <title>palace_line</title>
    <g id="Icon" stroke="none" stroke-width="1" fill="none" fill-rule="evenodd">
        <g id="Building" transform="translate(-144.000000, -96.000000)">
            <g id="palace_line" transform="translate(144.000000, 96.000000)">
                <path d="M24,0 L24,24 L0,24 L0,0 L24,0 Z M12.5934901,23.257841 L12.5819402,23.2595131 L12.5108777,23.2950439 L12.4918791,23.2987469 L12.4918791,23.2987469 L12.4767152,23.2950439 L12.4056548,23.2595131 C12.3958229,23.2563662 12.3870493,23.2590235 12.3821421,23.2649074 L12.3780323,23.275831 L12.360941,23.7031097 L12.3658947,23.7234994 L12.3769048,23.7357139 L12.4804777,23.8096931 L12.4953491,23.8136134 L12.4953491,23.8136134 L12.5071152,23.8096931 L12.6106902,23.7357139 L12.6232938,23.7196733 L12.6232938,23.7196733 L12.6266527,23.7031097 L12.609561,23.275831 C12.6075724,23.2657013 12.6010112,23.2592993 12.5934901,23.257841 L12.5934901,23.257841 Z M12.8583906,23.1452862 L12.8445485,23.1473072 L12.6598443,23.2396597 L12.6498822,23.2499052 L12.6498822,23.2499052 L12.6471943,23.2611114 L12.6650943,23.6906389 L12.6699349,23.7034178 L12.6699349,23.7034178 L12.678386,23.7104931 L12.8793402,23.8032389 C12.8914285,23.8068999 12.9022333,23.8029875 12.9078286,23.7952264 L12.9118235,23.7811639 L12.8776777,23.1665331 C12.8752882,23.1545897 12.8674102,23.1470016 12.8583906,23.1452862 L12.8583906,23.1452862 Z M12.1430473,23.1473072 C12.1332178,23.1423925 12.1221763,23.1452606 12.1156365,23.1525954 L12.1099173,23.1665331 L12.0757714,23.7811639 C12.0751323,23.7926639 12.0828099,23.8018602 12.0926481,23.8045676 L12.108256,23.8032389 L12.3092106,23.7104931 L12.3186497,23.7024347 L12.3186497,23.7024347 L12.3225043,23.6906389 L12.340401,23.2611114 L12.337245,23.2485176 L12.337245,23.2485176 L12.3277531,23.2396597 L12.1430473,23.1473072 Z" id="MingCute" fill-rule="nonzero"></path>
                <path d="M15.9928,3 C16.3973455,3 16.7463537,3.2378843 16.9075934,3.58204508 L16.9502,3.68835 C17.2582,4.60483 18.2147,4.99672 18.9916,4.99998 C19.7106,5.003 20.1117,5.68361 19.9662,6.25817 C19.6494,7.5094 18.9827,8.23445 18.3045,8.62061 C18.2003,8.67995 18.0982,8.72993 18,8.77205 L18,11 L18.5586,11 C19.3151,11 19.9532,11.5633 20.047,12.3139 L20.8828,19 L21,19 C21.5523,19 22,19.4477 22,20 C22,20.5523 21.5523,21.000075 21,21.000075 L14.0784,21.000075 C13.4828,21.000075 13,20.5172 13,19.9216 L13,18 C13,17.4477 12.5523,17 12,17 C11.4477,17 11,17.4477 11,18 L11,19.9216 C11,20.5172 10.5172,21.000075 9.92157,21.000075 L3,21.000075 C2.44772,21.000075 2,20.5523 2,20 C2,19.4477 2.44772,19 3,19 L3.11722,19 L3.95297,12.3139 C4.0468,11.5633 4.68491,11 5.44139,11 L6,11 L6,8.77205 C5.90182,8.72993 5.79973,8.67995 5.69551,8.62061 C5.01726,8.23445 4.35059,7.5094 4.03379,6.25817 C3.88832,5.68361 4.28942,5.003 5.00844,4.99998 C5.73678375,4.99692375 6.62292633,4.65229816 6.98463324,3.85407565 L7.04978,3.68835 C7.18438,3.28785 7.56218,3 8.00721,3 L15.9928,3 Z M18.1172,13 L5.88278,13 L5.13278,19 L9,19 L9,18 C9,16.3431 10.3431,15 12,15 C13.6569,15 15,16.3431 15,18 L15,19 L18.8672,19 L18.1172,13 Z M16,9 L8,9 L8,11 L16,11 L16,9 Z M15.3538,5 L8.64616,5 C8.12494,5.92131 7.2987,6.45842 6.48928,6.73987 C6.63482,6.87231 6.82478,6.97875 7.02329,7 L16.9767,7 C17.1752,6.97875 17.3652,6.87231 17.5107,6.73987 C16.7013,6.45842 15.8751,5.92131 15.3538,5 Z" id="形状" fill="#09244B"></path>
            </g>
        </g>
    </g>
</svg>

<svg xmlns="http://www.w3.org/2000/svg" width="24" height="24"><g fill="none" fill-rule="evenodd"><path d="M24 0v24H0V0h24ZM12.593 23.258l-.011.002-.071.035-.02.004-.014-.004-.071-.035c-.01-.004-.019-.001-.024.005l-.004.01-.017.428.005.02.01.013.104.074.015.004.012-.004.104-.074.012-.016.004-.017-.017-.427c-.002-.01-.009-.017-.017-.018Zm.265-.113-.013.002-.185.093-.01.01-.003.011.018.43.005.012.008.007.201.093c.012.004.023 0 .029-.008l.004-.014-.034-.614c-.003-.012-.01-.02-.02-.022Zm-.715.002a.023.023 0 0 0-.027.006l-.006.014-.034.614c0 .012.007.02.017.024l.015-.002.201-.093.01-.008.004-.011.017-.43-.003-.012-.01-.01-.184-.092Z"/><path fill="#09244B" d="M15.993 3c.404 0 .753.238.915.582l.042.106c.308.917 1.265 1.309 2.042 1.312.719.003 1.12.684.974 1.258-.317 1.251-.983 1.976-1.662 2.363-.104.059-.206.109-.304.151V11h.559a1.5 1.5 0 0 1 1.488 1.314L20.883 19H21a1 1 0 1 1 0 2h-6.922A1.078 1.078 0 0 1 13 19.922V18a1 1 0 1 0-2 0v1.922C11 20.517 10.517 21 9.922 21H3a1 1 0 0 1 0-2h.117l.836-6.686A1.5 1.5 0 0 1 5.441 11H6V8.772a3.028 3.028 0 0 1-.304-.151c-.679-.387-1.345-1.112-1.662-2.363-.146-.574.255-1.255.974-1.258.729-.003 1.615-.348 1.977-1.146l.065-.166c.134-.4.512-.688.957-.688h7.986Zm2.124 10H5.883l-.75 6H9v-1a3 3 0 1 1 6 0v1h3.867l-.75-6ZM16 9H8v2h8V9Zm-.646-4H8.646C8.125 5.921 7.3 6.458 6.49 6.74a.978.978 0 0 0 .534.26h9.954a.978.978 0 0 0 .534-.26c-.81-.282-1.636-.819-2.157-1.74Z"/></g></svg>
